X:82
T:The Manions of Mt. Laurel
R:reel
C: 1999, 2010 L.E. McCullough 
M:4/4
L:1/8
K:G
GE|:DEGA BGAB|DEGA B~G3|~A3B BAge|dBAG AGEG|
DEGA BGAB|DEGA B~G3|e~A3 gfge|dBAF ~G3A:|
|:~B3e dBAG|AB~B2 e2dB|~A3A AGBd|egdB ~A3G|
~B3e dBAG|(3B^cd ef ~g3d|e~A3 gfge|dBAF ~G3A:|
 

